X:73
T:Hey Moon
C:Charlie Sizemore - Good News
N:mandolin: Danny Barnes - TablEdited by Philippe Colleu
L:1/8
Q:1/4=200
M:4/4
K:C
"(120 bpm)"z2 G^G [B2^D2] G2 | "B"D^F FF F2 [BF]^D | ^G2 [B2^F2] FG B2 | d^d d^f =d^c B^G | 
B2 BA d^c B^G | "E"^cB G^G GG GA | d^d d^f =d^c B^G | "B"[B3^F3]^G F^D E=D | ^DB DB ^cd ^f^g | 
"F#"^f^d [f2^c2] f[fc] cf | [^f^c]f b^g fa gf | "G#m"d^d d^f ^gA dg | ^f^d ^cA cd fd | 
"E"e^g ee a2 g2 | "B"e^f f^g f^c ^df | "F#"^g^f d^d f=d ^c^G | "B"B2 BA BD ^FB | 
AF ^FD =FD E^F | ^DB, B,D DB, D^F | B8 | 


